ocio_vendor_extensions/families/red_ipp2/colorspaces.ocio
ocio_profile_version: 2.4

environment:
  {}
search_path: luts
strictparsing: true
luma: [0.2126, 0.7152, 0.0722]

roles:
  aces_interchange: ACES2065-1
  cie_xyz_d65_interchange: CIE XYZ-D65 - Display-referred
  color_picking: sRGB Encoded Rec.709 (sRGB)
  color_timing: ACEScct
  compositing_log: ACEScct
  data: Raw
  matte_paint: ACEScct
  scene_linear: ACEScg
  texture_paint: sRGB Encoded Rec.709 (sRGB)

file_rules:
  - !<Rule> {name: Default, colorspace: ACES2065-1}

displays:
  sRGB - Display:
    - !<View> {name: Raw, colorspace: Raw}

active_displays: []
active_views: []

view_transforms:
  - !<ViewTransform>
    name: Un-tone-mapped
    from_scene_reference: !<BuiltinTransform> {style: UTILITY - ACES-AP0_to_CIE-XYZ-D65_BFD}

display_colorspaces:
  - !<ColorSpace>
    name: CIE XYZ-D65 - Display-referred
    aliases: [cie_xyz_d65_display, lin_ciexyzd65_display]
    family: ""
    equalitygroup: ""
    bitdepth: 32f
    description: The "CIE XYZ (D65)" display connection colorspace.
    isdata: false
    encoding: display-linear
    allocation: uniform

colorspaces:
  - !<ColorSpace>
    name: ACES2065-1
    aliases: [aces2065_1, aces, ACES - ACES2065-1, lin_ap0, lin_ap0_scene]
    family: ACES
    equalitygroup: ""
    bitdepth: 32f
    description: The "Academy Color Encoding System" reference colorspace.
    isdata: false
    categories: [file-io, texture]
    encoding: scene-linear
    allocation: uniform

  - !<ColorSpace>
    name: ACEScct
    aliases: [ACES - ACEScct, acescct_ap1]
    family: ACES
    equalitygroup: ""
    bitdepth: 32f
    description: |
      Convert ACEScct to ACES2065-1

      ACEStransformID: urn:ampas:aces:transformId:v2.0:CSC.Academy.ACEScct_to_ACES.a2.v1

      AMF Components
      --------------
      ACEStransformID: urn:ampas:aces:transformId:v2.0:CSC.Academy.ACES_to_ACEScct.a2.v1
    isdata: false
    categories: [file-io, working-space]
    encoding: log
    allocation: uniform
    to_scene_reference: !<BuiltinTransform> {style: ACEScct_to_ACES2065-1}

  - !<ColorSpace>
    name: ACEScg
    aliases: [ACES - ACEScg, lin_ap1, lin_ap1_scene]
    family: ACES
    equalitygroup: ""
    bitdepth: 32f
    description: |
      Convert ACEScg to ACES2065-1

      ACEStransformID: urn:ampas:aces:transformId:v2.0:CSC.Academy.ACEScg_to_ACES.a2.v1

      AMF Components
      --------------
      ACEStransformID: urn:ampas:aces:transformId:v2.0:CSC.Academy.ACES_to_ACEScg.a2.v1
    isdata: false
    categories: [file-io, working-space, texture]
    encoding: scene-linear
    allocation: uniform
    to_scene_reference: !<BuiltinTransform> {style: ACEScg_to_ACES2065-1}

  - !<ColorSpace>
    name: Log3G10 REDWideGamutRGB
    aliases: [log3g10_redwidegamutrgb, rl3g10_rwg, Input - RED - REDLog3G10 - REDWideGamutRGB]
    family: Input/RED
    equalitygroup: ""
    bitdepth: 32f
    description: |
      Convert RED Log3G10 REDWideGamutRGB to ACES2065-1

      CLFtransformID: urn:aswf:ocio:transformId:1.0:RED:Input:Log3G10_REDWideGamutRGB_to_ACES2065-1:1.0
      ACEStransformID: urn:ampas:aces:transformId:v2.0:CSC.Red.Log3G10_RWG_to_ACES.a2.v1
      ACEStransformID: urn:ampas:aces:transformId:v1.5:IDT.RED.Log3G10_REDWideGamutRGB.a1.v1

      AMF Components
      --------------
      ACEStransformID: urn:ampas:aces:transformId:v1.5:ACEScsc.Academy.Log3G10_RWG_to_ACES.a1.1.0
      ACEStransformID: urn:ampas:aces:transformId:v2.0:CSC.Red.ACES_to_Log3G10_RWG.a2.v1
    isdata: false
    categories: [file-io]
    encoding: log
    allocation: uniform
    to_scene_reference: !<GroupTransform>
      name: RED Log3G10 REDWideGamutRGB to ACES2065-1
      children:
        - !<LogCameraTransform> {base: 10, log_side_slope: 0.224282, lin_side_slope: 155.975327, lin_side_offset: 2.55975327, lin_side_break: -0.01, direction: inverse}
        - !<MatrixTransform> {matrix: [0.785058804068092, 0.0838587565440846, 0.131082439387823, 0, 0.0231738348454756, 1.08789754919233, -0.111071384037806, 0, -0.0737604353682082, -0.314590072290208, 1.38835050765842, 0, 0, 0, 0, 1]}

  - !<ColorSpace>
    name: Linear REDWideGamutRGB
    aliases: [lin_redwidegamutrgb, lin_rwg]
    family: Input/RED
    equalitygroup: ""
    bitdepth: 32f
    description: Convert Linear REDWideGamutRGB to ACES2065-1
    isdata: false
    allocation: uniform
    to_scene_reference: !<GroupTransform>
      name: Linear REDWideGamutRGB to ACES2065-1
      children:
        - !<MatrixTransform> {matrix: [0.785058804068092, 0.0838587565440846, 0.131082439387823, 0, 0.0231738348454756, 1.08789754919233, -0.111071384037806, 0, -0.0737604353682082, -0.314590072290208, 1.38835050765842, 0, 0, 0, 0, 1]}

  - !<ColorSpace>
    name: "RED-IPP2 : Rec.1886: 2.4 Gamma : Rec.2020 - MC-R1"
    family: RED-IPP2/display_referred/Rec.2020
    equalitygroup: ""
    bitdepth: 32f
    description: "Rec.1886: 2.4 Gamma : Rec.2020"
    isdata: false
    allocation: uniform
    allocationvars: [0, 1]
    from_scene_reference: !<FileTransform> {src: RED-IPP2_ACES_to_Rec2020_MC_R1_Hard.clf, interpolation: best}

  - !<ColorSpace>
    name: "RED-IPP2 : Rec.1886: 2.4 Gamma : Rec.2020 - MC-R2"
    family: RED-IPP2/display_referred/Rec.2020
    equalitygroup: ""
    bitdepth: 32f
    description: "Rec.1886: 2.4 Gamma : Rec.2020"
    isdata: false
    allocation: uniform
    allocationvars: [0, 1]
    from_scene_reference: !<FileTransform> {src: RED-IPP2_ACES_to_Rec2020_MC_R2_Medium.clf, interpolation: best}

  - !<ColorSpace>
    name: "RED-IPP2 : Rec.1886: 2.4 Gamma : Rec.2020 - MC-R3"
    family: RED-IPP2/display_referred/Rec.2020
    equalitygroup: ""
    bitdepth: 32f
    description: "Rec.1886: 2.4 Gamma : Rec.2020"
    isdata: false
    allocation: uniform
    allocationvars: [0, 1]
    from_scene_reference: !<FileTransform> {src: RED-IPP2_ACES_to_Rec2020_MC_R3_Soft.clf, interpolation: best}

  - !<ColorSpace>
    name: "RED-IPP2 : Rec.1886: 2.4 Gamma : Rec.2020 - MC-R4"
    family: RED-IPP2/display_referred/Rec.2020
    equalitygroup: ""
    bitdepth: 32f
    description: "Rec.1886: 2.4 Gamma : Rec.2020"
    isdata: false
    allocation: uniform
    allocationvars: [0, 1]
    from_scene_reference: !<FileTransform> {src: RED-IPP2_ACES_to_Rec2020_MC_R4_VerySoft.clf, interpolation: best}

  - !<ColorSpace>
    name: "RED-IPP2 : Rec.1886: 2.4 Gamma : Rec.709 - MC-R1"
    family: RED-IPP2/display_referred/Rec.1886
    equalitygroup: ""
    bitdepth: 32f
    description: "Rec.1886: 2.4 Gamma : Rec.709"
    isdata: false
    allocation: uniform
    allocationvars: [0, 1]
    from_scene_reference: !<FileTransform> {src: RED-IPP2_ACES_to_Rec709_MC_R1_Hard.clf, interpolation: best}

  - !<ColorSpace>
    name: "RED-IPP2 : Rec.1886: 2.4 Gamma : Rec.709 - MC-R2"
    family: RED-IPP2/display_referred/Rec.1886
    equalitygroup: ""
    bitdepth: 32f
    description: "Rec.1886: 2.4 Gamma : Rec.709"
    isdata: false
    allocation: uniform
    allocationvars: [0, 1]
    from_scene_reference: !<FileTransform> {src: RED-IPP2_ACES_to_Rec709_MC_R2_Medium.clf, interpolation: best}

  - !<ColorSpace>
    name: "RED-IPP2 : Rec.1886: 2.4 Gamma : Rec.709 - MC-R3"
    family: RED-IPP2/display_referred/Rec.1886
    equalitygroup: ""
    bitdepth: 32f
    description: "Rec.1886: 2.4 Gamma : Rec.709"
    isdata: false
    allocation: uniform
    allocationvars: [0, 1]
    from_scene_reference: !<FileTransform> {src: RED-IPP2_ACES_to_Rec709_MC_R3_Soft.clf, interpolation: best}

  - !<ColorSpace>
    name: "RED-IPP2 : Rec.1886: 2.4 Gamma : Rec.709 - MC-R4"
    family: RED-IPP2/display_referred/Rec.1886
    equalitygroup: ""
    bitdepth: 32f
    description: "Rec.1886: 2.4 Gamma : Rec.709"
    isdata: false
    allocation: uniform
    allocationvars: [0, 1]
    from_scene_reference: !<FileTransform> {src: RED-IPP2_ACES_to_Rec709_MC_R4_VerySoft.clf, interpolation: best}

  - !<ColorSpace>
    name: Raw
    aliases: [Utility - Raw, none]
    family: Utility
    equalitygroup: ""
    bitdepth: 32f
    description: The utility "Raw" colorspace.
    isdata: true
    categories: [file-io, texture]
    encoding: data
    allocation: uniform

  - !<ColorSpace>
    name: sRGB Encoded Rec.709 (sRGB)
    aliases: [srgb_encoded_rec709_srgb, srgb_texture, srgb_rec709_scene, Utility - sRGB - Texture, Input - Generic - sRGB - Texture, sRGB - Texture, srgb_tx]
    family: Utility
    equalitygroup: ""
    bitdepth: 32f
    description: |
      Convert ACES2065-1 to sRGB

      CLFtransformID: urn:aswf:ocio:transformId:1.0:OCIO:Utility:AP0_to_sRGB-Encoded-Rec709:1.0
    isdata: false
    categories: [file-io, texture]
    encoding: sdr-video
    allocation: uniform
    from_scene_reference: !<GroupTransform>
      name: AP0 to sRGB Encoded Rec.709 (sRGB)
      children:
        - !<MatrixTransform> {matrix: [2.52168618674388, -1.13413098823972, -0.387555198504164, 0, -0.276479914229922, 1.37271908766826, -0.096239173438334, 0, -0.0153780649660342, -0.152975335867399, 1.16835340083343, 0, 0, 0, 0, 1]}
        - !<ExponentWithLinearTransform> {gamma: 2.4, offset: 0.055, direction: inverse}
