tests/fixtures/snippet_family/colorspaces.ocio
ocio_profile_version: 2.4

environment:
  {}
search_path: ""
strictparsing: true
luma: [0.2126, 0.7152, 0.0722]

roles:
  scene_linear: ACES2065-1

file_rules:
  - !<Rule> {name: Default, colorspace: ACES2065-1}

displays:
  sRGB - Display:
    - !<View> {name: Raw, colorspace: Raw}

colorspaces:
  - !<ColorSpace>
    name: ACES2065-1
    family: ACES
    bitdepth: 32f
    isdata: false
    allocation: uniform

  - !<ColorSpace>
    name: Raw
    family: Utility
    bitdepth: 32f
    isdata: true
    allocation: uniform

  - !<ColorSpace>
    name: "TestFam : sRGB View"
    family: TestFam/display_referred/sRGB
    bitdepth: 32f
    description: "sRGB test view"
    isdata: false
    allocation: uniform
    from_scene_reference: !<MatrixTransform> {matrix: [1, 0, 0, 0, 0, 1, 0, 0, 0, 0, 1, 0, 0, 0, 0, 1]}
