ocio_vendor_extensions/families/sony/colorspaces.ocio
ocio_profile_version: 2.4

environment:
  {}
search_path: luts
strictparsing: true
luma: [0.2126, 0.7152, 0.0722]

roles:
  scene_linear: ACES2065-1

file_rules:
  - !<Rule> {name: Default, colorspace: default}

displays:
  sRGB - Display:
    - !<View> {name: Raw, colorspace: Raw}

active_displays: []
active_views: []

colorspaces:
  - !<ColorSpace>
    name: ACES2065-1
    family: ACES
    equalitygroup: ""
    bitdepth: 32f
    isdata: false
    allocation: uniform

  - !<ColorSpace>
    name: Raw
    family: Utility
    equalitygroup: ""
    bitdepth: 32f
    isdata: true
    allocation: uniform

  - !<ColorSpace>
    name: S-Log3 Venice S-Gamut3
    aliases: [slog3_venice_sgamut3, Input - Sony - S-Log3 - Venice S-Gamut3]
    family: Input/Sony
    equalitygroup: ""
    bitdepth: 32f
    description: |
      Convert Sony S-Log3 Venice S-Gamut3 to ACES2065-1

      CLFtransformID: urn:aswf:ocio:transformId:1.0:Sony:Input:SLog3_Venice_SGamut3_to_ACES2065-1:1.0
      ACEStransformID: urn:ampas:aces:transformId:v2.0:CSC.Sony.Venice_SLog3_SGamut3_to_ACES.a2.v1
      ACEStransformID: urn:ampas:aces:transformId:v1.5:IDT.Sony.Venice_SLog3_SGamut3.a1.v1

      AMF Components
      --------------
      ACEStransformID: urn:ampas:aces:transformId:v1.5:ACEScsc.Academy.SLog3_Venice_SGamut3_to_ACES.a1.1.0
      ACEStransformID: urn:ampas:aces:transformId:v2.0:CSC.Sony.ACES_to_Venice_SLog3_SGamut3.a2.v1
    isdata: false
    categories: [file-io]
    encoding: log
    allocation: uniform
    to_scene_reference: !<GroupTransform>
      name: Sony S-Log3 Venice S-Gamut3 to ACES2065-1
      children:
        - !<LogCameraTransform> {base: 10, log_side_slope: 0.255620723362659, log_side_offset: 0.410557184750733, lin_side_slope: 5.26315789473684, lin_side_offset: 0.0526315789473684, lin_side_break: 0.01125, linear_slope: 6.62194371177582, direction: inverse}
        - !<MatrixTransform> {matrix: [0.793329741146434, 0.089078625620677, 0.117591633232888, 0, 0.0155810585252582, 1.03271230692988, -0.0482933654551394, 0, -0.0188647477991488, 0.0127694120973433, 1.00609533570181, 0, 0, 0, 0, 1]}

  - !<ColorSpace>
    name: S-Log3 S-Gamut3
    aliases: [slog3_sgamut3]
    family: Input/Sony
    equalitygroup: ""
    bitdepth: 32f
    description: Convert Sony S-Log3 S-Gamut3 to ACES2065-1
    isdata: false
    allocation: uniform
    to_scene_reference: !<GroupTransform>
      name: Sony S-Log3 S-Gamut3 to ACES2065-1
      children:
        - !<LogCameraTransform> {base: 10, log_side_slope: 0.255620723362659, log_side_offset: 0.410557184750733, lin_side_slope: 5.26315789473684, lin_side_offset: 0.0526315789473684, lin_side_break: 0.01125, linear_slope: 6.62194371177582, direction: inverse}
        - !<MatrixTransform> {matrix: [0.75298259539984, 0.143370216235557, 0.103647188364603, 0, 0.0217076974414429, 1.01531883550528, -0.0370265329467195, 0, -0.00941605274963355, 0.00337041785882367, 1.00604563489081, 0, 0, 0, 0, 1]}

  - !<ColorSpace>
    name: S-Log3 S-Gamut3.Cine
    aliases: [slog3_sgamut3cine]
    family: Input/Sony
    equalitygroup: ""
    bitdepth: 32f
    description: Convert Sony S-Log3 S-Gamut3.Cine to ACES2065-1
    isdata: false
    allocation: uniform
    to_scene_reference: !<GroupTransform>
      name: Sony S-Log3 S-Gamut3.Cine to ACES2065-1
      children:
        - !<LogCameraTransform> {base: 10, log_side_slope: 0.255620723362659, log_side_offset: 0.410557184750733, lin_side_slope: 5.26315789473684, lin_side_offset: 0.0526315789473684, lin_side_break: 0.01125, linear_slope: 6.62194371177582, direction: inverse}
        - !<MatrixTransform> {matrix: [0.638788667185978, 0.272351433711262, 0.0888598991027595, 0, -0.00391590602528224, 1.0880732308974, -0.0841573248721177, 0, -0.0299072021239151, -0.0264325799101947, 1.05633978203411, 0, 0, 0, 0, 1]}

  - !<ColorSpace>
    name: S-Log3 Venice S-Gamut3.Cine
    aliases: [slog3_venice_sgamut3cine]
    family: Input/Sony
    equalitygroup: ""
    bitdepth: 32f
    description: Convert Sony S-Log3 Venice S-Gamut3.Cine to ACES2065-1
    isdata: false
    allocation: uniform
    to_scene_reference: !<GroupTransform>
      name: Sony S-Log3 Venice S-Gamut3.Cine to ACES2065-1
      children:
        - !<LogCameraTransform> {base: 10, log_side_slope: 0.255620723362659, log_side_offset: 0.410557184750733, lin_side_slope: 5.26315789473684, lin_side_offset: 0.0526315789473684, lin_side_break: 0.01125, linear_slope: 6.62194371177582, direction: inverse}
        - !<MatrixTransform> {matrix: [0.674257092126512, 0.220571735923397, 0.10517117195009, 0, -0.00931360607857167, 1.10595886142466, -0.0966452553460855, 0, -0.0382090673002312, -0.017938376600236, 1.05614744390047, 0, 0, 0, 0, 1]}

  - !<ColorSpace>
    name: Linear S-Gamut3
    aliases: [lin_sgamut3]
    family: Input/Sony
    equalitygroup: ""
    bitdepth: 32f
    description: Convert Linear S-Gamut3 to ACES2065-1
    isdata: false
    allocation: uniform
    to_scene_reference: !<GroupTransform>
      name: Linear S-Gamut3 to ACES2065-1
      children:
        - !<MatrixTransform> {matrix: [0.75298259539984, 0.143370216235557, 0.103647188364603, 0, 0.0217076974414429, 1.01531883550528, -0.0370265329467195, 0, -0.00941605274963355, 0.00337041785882367, 1.00604563489081, 0, 0, 0, 0, 1]}

  - !<ColorSpace>
    name: Linear Venice S-Gamut3
    aliases: [lin_venice_sgamut3]
    family: Input/Sony
    equalitygroup: ""
    bitdepth: 32f
    description: Convert Linear Venice S-Gamut3 to ACES2065-1
    isdata: false
    allocation: uniform
    to_scene_reference: !<GroupTransform>
      name: Linear Venice S-Gamut3 to ACES2065-1
      children:
        - !<MatrixTransform> {matrix: [0.793329741146434, 0.089078625620677, 0.117591633232888, 0, 0.0155810585252582, 1.03271230692988, -0.0482933654551394, 0, -0.0188647477991488, 0.0127694120973433, 1.00609533570181, 0, 0, 0, 0, 1]}

  - !<ColorSpace>
    name: "SONY : Rec.1886: 2.4 Gamma : Rec.709"
    family: SONY/display_referred/Rec.1886
    equalitygroup: ""
    bitdepth: 32f
    description: "Rec.1886: 2.4 Gamma : Rec.709 (Classic)"
    isdata: false
    allocation: uniform
    allocationvars: [0, 1]
    from_scene_reference: !<FileTransform> {src: Sony_ACES_to_Rec709.clf, interpolation: best}

  - !<ColorSpace>
    name: "SONY : DCI: 2.6 Gamma : P3 D65"
    family: SONY/display_referred/DCI
    equalitygroup: ""
    bitdepth: 32f
    description: "DCI: 2.6 Gamma : P3 D65"
    isdata: false
    allocation: uniform
    allocationvars: [0, 1]
    from_scene_reference: !<FileTransform> {src: Sony_ACES_to_P3D65.clf, interpolation: best}
