others/netflix-merge/studio-config_aces-1-and-2-merge.ocio
ocio_profile_version: 2.5

environment:
  {}
search_path: ""
strictparsing: true
luma: [0.2126, 0.7152, 0.0722]
name: studio-config_aces-1-and-2-merge
description: Merge of studio-config-v2.2.0_aces-v1.3_ocio-v2.4 into studio-config-v4.0.0_aces-v2.0_ocio-v2.5.

roles:
  aces_interchange: ACES2065-1
  cie_xyz_d65_interchange: CIE XYZ-D65 - Display-referred
  color_picking: sRGB Encoded Rec.709 (sRGB)
  color_timing: ACEScct
  compositing_log: ACEScct
  data: Raw
  matte_paint: ACEScct
  scene_linear: ACEScg
  texture_paint: sRGB Encoded Rec.709 (sRGB)

file_rules:
  - !<Rule> {name: EXR, colorspace: ACES2065-1, pattern: "*", extension: exr}
  - !<Rule> {name: Movies, colorspace: Rec.1886 Rec.709 - Display, regex: ".*\\.([mM][pP]4|[mM][oO][vV]|[mM][xX][fF])$"}
  - !<Rule> {name: Default, colorspace: sRGB - Display}

viewing_rules:
  - !<Rule> {name: Any Scene-linear or Log, encodings: [log, scene-linear]}
  - !<Rule> {name: Any Video, encodings: [sdr-video, hdr-video, edr-video, display-linear]}

shared_views:
  - !<View> {name: ACES 2.0 - SDR 100 nits (Rec.709), view_transform: ACES 2.0 - SDR 100 nits (Rec.709), display_colorspace: <USE_DISPLAY_NAME>, rule: Any Scene-linear or Log}
  - !<View> {name: ACES 2.0 - SDR 100 nits (P3 D65), view_transform: ACES 2.0 - SDR 100 nits (P3 D65), display_colorspace: <USE_DISPLAY_NAME>, rule: Any Scene-linear or Log}
  - !<View> {name: ACES 2.0 - HDR 1000 nits (P3 D65), view_transform: ACES 2.0 - HDR 1000 nits (P3 D65), display_colorspace: <USE_DISPLAY_NAME>, rule: Any Scene-linear or Log}
  - !<View> {name: ACES 2.0 - HDR 500 nits (P3 D65), view_transform: ACES 2.0 - HDR 500 nits (P3 D65), display_colorspace: <USE_DISPLAY_NAME>, rule: Any Scene-linear or Log}
  - !<View> {name: ACES 2.0 - HDR 2000 nits (P3 D65), view_transform: ACES 2.0 - HDR 2000 nits (P3 D65), display_colorspace: <USE_DISPLAY_NAME>, rule: Any Scene-linear or Log}
  - !<View> {name: ACES 2.0 - HDR 4000 nits (P3 D65), view_transform: ACES 2.0 - HDR 4000 nits (P3 D65), display_colorspace: <USE_DISPLAY_NAME>, rule: Any Scene-linear or Log}
  - !<View> {name: ACES 2.0 - HDR 500 nits (Rec.2020), view_transform: ACES 2.0 - HDR 500 nits (Rec.2020), display_colorspace: <USE_DISPLAY_NAME>, rule: Any Scene-linear or Log}
  - !<View> {name: ACES 2.0 - HDR 1000 nits (Rec.2020), view_transform: ACES 2.0 - HDR 1000 nits (Rec.2020), display_colorspace: <USE_DISPLAY_NAME>, rule: Any Scene-linear or Log}
  - !<View> {name: ACES 2.0 - HDR 2000 nits (Rec.2020), view_transform: ACES 2.0 - HDR 2000 nits (Rec.2020), display_colorspace: <USE_DISPLAY_NAME>, rule: Any Scene-linear or Log}
  - !<View> {name: ACES 2.0 - HDR 4000 nits (Rec.2020), view_transform: ACES 2.0 - HDR 4000 nits (Rec.2020), display_colorspace: <USE_DISPLAY_NAME>, rule: Any Scene-linear or Log}
  - !<View> {name: ACES 2.0 - HDR 108 nits (P3 D65), view_transform: ACES 2.0 - HDR 108 nits (P3 D65), display_colorspace: <USE_DISPLAY_NAME>, rule: Any Scene-linear or Log}
  - !<View> {name: Un-tone-mapped, view_transform: Un-tone-mapped, display_colorspace: <USE_DISPLAY_NAME>, rule: Any Scene-linear or Log}
  - !<View> {name: Video (colorimetric), view_transform: Video (colorimetric), display_colorspace: <USE_DISPLAY_NAME>, rule: Any Video}
  - !<View> {name: ACES 1.0 - SDR Video, view_transform: ACES 1.0 - SDR Video, display_colorspace: <USE_DISPLAY_NAME>}
  - !<View> {name: ACES 1.0 - SDR Video (D60 sim on D65), view_transform: ACES 1.0 - SDR Video (D60 sim on D65), display_colorspace: <USE_DISPLAY_NAME>}
  - !<View> {name: ACES 1.1 - SDR Video (P3 lim), view_transform: ACES 1.1 - SDR Video (P3 lim), display_colorspace: <USE_DISPLAY_NAME>}
  - !<View> {name: ACES 1.1 - SDR Video (Rec.709 lim), view_transform: ACES 1.1 - SDR Video (Rec.709 lim), display_colorspace: <USE_DISPLAY_NAME>}
  - !<View> {name: "ACES 1.1 - HDR Video (1000 nits & Rec.2020 lim)", view_transform: "ACES 1.1 - HDR Video (1000 nits & Rec.2020 lim)", display_colorspace: <USE_DISPLAY_NAME>}
  - !<View> {name: "ACES 1.1 - HDR Video (2000 nits & Rec.2020 lim)", view_transform: "ACES 1.1 - HDR Video (2000 nits & Rec.2020 lim)", display_colorspace: <USE_DISPLAY_NAME>}
  - !<View> {name: "ACES 1.1 - HDR Video (4000 nits & Rec.2020 lim)", view_transform: "ACES 1.1 - HDR Video (4000 nits & Rec.2020 lim)", display_colorspace: <USE_DISPLAY_NAME>}
  - !<View> {name: "ACES 1.1 - HDR Video (1000 nits & P3 lim)", view_transform: "ACES 1.1 - HDR Video (1000 nits & P3 lim)", display_colorspace: <USE_DISPLAY_NAME>}
  - !<View> {name: "ACES 1.1 - HDR Video (2000 nits & P3 lim)", view_transform: "ACES 1.1 - HDR Video (2000 nits & P3 lim)", display_colorspace: <USE_DISPLAY_NAME>}
  - !<View> {name: "ACES 1.1 - HDR Video (4000 nits & P3 lim)", view_transform: "ACES 1.1 - HDR Video (4000 nits & P3 lim)", display_colorspace: <USE_DISPLAY_NAME>}
  - !<View> {name: ACES 1.0 - SDR Cinema, view_transform: ACES 1.0 - SDR Cinema, display_colorspace: <USE_DISPLAY_NAME>}
  - !<View> {name: ACES 1.1 - SDR Cinema (Rec.709 lim), view_transform: ACES 1.1 - SDR Cinema (Rec.709 lim), display_colorspace: <USE_DISPLAY_NAME>}
  - !<View> {name: ACES 1.0 - SDR Cinema (D60 sim on DCI), view_transform: ACES 1.0 - SDR Cinema (D60 sim on DCI), display_colorspace: <USE_DISPLAY_NAME>}
  - !<View> {name: ACES 1.1 - SDR Cinema (D60 sim on D65), view_transform: ACES 1.1 - SDR Cinema (D60 sim on D65), display_colorspace: <USE_DISPLAY_NAME>}
  - !<View> {name: ACES 1.1 - SDR Cinema (D65 sim on DCI), view_transform: ACES 1.1 - SDR Cinema (D65 sim on DCI), display_colorspace: <USE_DISPLAY_NAME>}
  - !<View> {name: "ACES 1.1 - HDR Cinema (108 nits & P3 lim)", view_transform: "ACES 1.1 - HDR Cinema (108 nits & P3 lim)", display_colorspace: <USE_DISPLAY_NAME>}

displays:
  sRGB - Display:
    - !<View> {name: Raw, colorspace: Raw}
    - !<Views> [ACES 2.0 - SDR 100 nits (Rec.709), Un-tone-mapped, Video (colorimetric), ACES 1.0 - SDR Video, ACES 1.0 - SDR Video (D60 sim on D65)]
  Gamma 2.2 Rec.709 - Display:
    - !<View> {name: Raw, colorspace: Raw}
    - !<Views> [ACES 2.0 - SDR 100 nits (Rec.709), Un-tone-mapped, Video (colorimetric)]
  Display P3 - Display:
    - !<View> {name: Raw, colorspace: Raw}
    - !<Views> [ACES 2.0 - SDR 100 nits (P3 D65), Un-tone-mapped, Video (colorimetric), ACES 1.0 - SDR Video, ACES 1.0 - SDR Video (D60 sim on D65)]
  Display P3 HDR - Display:
    - !<View> {name: Raw, colorspace: Raw}
    - !<Views> [ACES 2.0 - HDR 1000 nits (P3 D65), ACES 2.0 - SDR 100 nits (Rec.709), Un-tone-mapped, Video (colorimetric)]
  P3-D65 - Display:
    - !<View> {name: Raw, colorspace: Raw}
    - !<Views> [ACES 2.0 - SDR 100 nits (P3 D65), ACES 2.0 - SDR 100 nits (Rec.709), Un-tone-mapped, Video (colorimetric), ACES 1.0 - SDR Cinema, ACES 1.1 - SDR Cinema (Rec.709 lim), ACES 1.1 - SDR Cinema (D60 sim on D65)]
  Rec.1886 Rec.709 - Display:
    - !<View> {name: Raw, colorspace: Raw}
    - !<Views> [ACES 2.0 - SDR 100 nits (Rec.709), Un-tone-mapped, Video (colorimetric), ACES 1.0 - SDR Video, ACES 1.0 - SDR Video (D60 sim on D65)]
  Rec.2100-HLG - Display:
    - !<View> {name: Raw, colorspace: Raw}
    - !<Views> [ACES 2.0 - HDR 1000 nits (P3 D65), Un-tone-mapped, Video (colorimetric), "ACES 1.1 - HDR Video (1000 nits & Rec.2020 lim)"]
  Rec.2100-PQ - Display:
    - !<View> {name: Raw, colorspace: Raw}
    - !<Views> [ACES 2.0 - HDR 500 nits (P3 D65), ACES 2.0 - HDR 1000 nits (P3 D65), ACES 2.0 - HDR 2000 nits (P3 D65), ACES 2.0 - HDR 4000 nits (P3 D65), ACES 2.0 - HDR 500 nits (Rec.2020), ACES 2.0 - HDR 1000 nits (Rec.2020), ACES 2.0 - HDR 2000 nits (Rec.2020), ACES 2.0 - HDR 4000 nits (Rec.2020), ACES 2.0 - SDR 100 nits (Rec.709), Un-tone-mapped, Video (colorimetric), "ACES 1.1 - HDR Video (1000 nits & Rec.2020 lim)", "ACES 1.1 - HDR Video (2000 nits & Rec.2020 lim)", "ACES 1.1 - HDR Video (4000 nits & Rec.2020 lim)"]
  ST2084-P3-D65 - Display:
    - !<View> {name: Raw, colorspace: Raw}
    - !<Views> [ACES 2.0 - HDR 108 nits (P3 D65), ACES 2.0 - HDR 500 nits (P3 D65), ACES 2.0 - HDR 1000 nits (P3 D65), ACES 2.0 - HDR 2000 nits (P3 D65), ACES 2.0 - HDR 4000 nits (P3 D65), ACES 2.0 - SDR 100 nits (Rec.709), Un-tone-mapped, Video (colorimetric), "ACES 1.1 - HDR Video (1000 nits & P3 lim)", "ACES 1.1 - HDR Video (2000 nits & P3 lim)", "ACES 1.1 - HDR Video (4000 nits & P3 lim)", "ACES 1.1 - HDR Cinema (108 nits & P3 lim)"]
  Rec.1886 Rec.2020 - Display:
    - !<View> {name: Raw, colorspace: Raw}
    - !<Views> [ACES 1.0 - SDR Video, ACES 1.1 - SDR Video (P3 lim), ACES 1.1 - SDR Video (Rec.709 lim), Un-tone-mapped]
  P3-D60 - Display:
    - !<View> {name: Raw, colorspace: Raw}
    - !<Views> [ACES 1.0 - SDR Cinema, Un-tone-mapped]
  P3-DCI - Display:
    - !<View> {name: Raw, colorspace: Raw}
    - !<Views> [ACES 1.0 - SDR Cinema (D60 sim on DCI), ACES 1.1 - SDR Cinema (D65 sim on DCI), Un-tone-mapped]

virtual_display:
  - !<View> {name: Raw, colorspace: Raw}
  - !<Views> [Un-tone-mapped, ACES 2.0 - SDR 100 nits (Rec.709), Video (colorimetric), ACES 2.0 - SDR 100 nits (P3 D65)]

active_displays: [sRGB - Display, Display P3 - Display, Display P3 HDR - Display, Gamma 2.2 Rec.709 - Display, P3-D65 - Display, Rec.1886 Rec.709 - Display, Rec.2100-HLG - Display, Rec.2100-PQ - Display, ST2084-P3-D65 - Display, Rec.1886 Rec.2020 - Display, P3-D60 - Display, P3-DCI - Display]
active_views: [ACES 2.0 - HDR 1000 nits (P3 D65), ACES 2.0 - HDR 1000 nits (Rec.2020), ACES 2.0 - HDR 2000 nits (P3 D65), ACES 2.0 - HDR 2000 nits (Rec.2020), ACES 2.0 - HDR 4000 nits (P3 D65), ACES 2.0 - HDR 4000 nits (Rec.2020), ACES 2.0 - HDR 500 nits (P3 D65), ACES 2.0 - HDR 500 nits (Rec.2020), ACES 2.0 - HDR 108 nits (P3 D65), ACES 2.0 - SDR 100 nits (P3 D65), ACES 2.0 - SDR 100 nits (Rec.709), Un-tone-mapped, Video (colorimetric), Raw, ACES 1.0 - SDR Video, ACES 1.0 - SDR Video (D60 sim on D65), ACES 1.1 - SDR Video (P3 lim), ACES 1.1 - SDR Video (Rec.709 lim), "ACES 1.1 - HDR Video (1000 nits & Rec.2020 lim)", "ACES 1.1 - HDR Video (2000 nits & Rec.2020 lim)", "ACES 1.1 - HDR Video (4000 nits & Rec.2020 lim)", "ACES 1.1 - HDR Video (1000 nits & P3 lim)", "ACES 1.1 - HDR Video (2000 nits & P3 lim)", "ACES 1.1 - HDR Video (4000 nits & P3 lim)", ACES 1.0 - SDR Cinema, ACES 1.1 - SDR Cinema (Rec.709 lim), ACES 1.0 - SDR Cinema (D60 sim on DCI), ACES 1.1 - SDR Cinema (D60 sim on D65), ACES 1.1 - SDR Cinema (D65 sim on DCI), "ACES 1.1 - HDR Cinema (108 nits & P3 lim)"]
inactive_colorspaces: [CIE XYZ-D65 - Display-referred, CIE XYZ-D65 - Scene-referred]

looks:
  - !<Look>
    name: ACES 1.3 Reference Gamut Compression
    process_space: ACES2065-1
    description: LMT (applied in ACES2065-1) to compress scene-referred values from common cameras into the AP1 gamut
    interchange:
      amf_transform_ids: |
        urn:ampas:aces:transformId:v2.0:InvLook.Academy.ReferenceGamutCompress.a2.v1
        urn:ampas:aces:transformId:v2.0:Look.Academy.ReferenceGamutCompress.a2.v1
    transform: !<BuiltinTransform> {style: ACES-LMT - ACES 1.3 Reference Gamut Compression}


default_view_transform: Un-tone-mapped

view_transforms:
  - !<ViewTransform>
    name: Un-tone-mapped
    from_scene_reference: !<BuiltinTransform> {style: UTILITY - ACES-AP0_to_CIE-XYZ-D65_BFD}

  - !<ViewTransform>
    name: Video (colorimetric)
    from_display_reference: !<MatrixTransform> {}

  - !<ViewTransform>
    name: ACES 2.0 - SDR 100 nits (Rec.709)
    description: Component of ACES 2 Output Transforms for 100 nit SDR Rec709
    interchange:
      amf_transform_ids: |
        urn:ampas:aces:transformId:v2.0:InvOutput.Academy.Rec709-D65_100nit_in_P3-D65_ST2084.a2.v1
        urn:ampas:aces:transformId:v2.0:InvOutput.Academy.Rec709-D65_100nit_in_P3-D65_sRGB-Piecewise.a2.v1
        urn:ampas:aces:transformId:v2.0:InvOutput.Academy.Rec709-D65_100nit_in_Rec2100-D65_ST2084.a2.v1
        urn:ampas:aces:transformId:v2.0:InvOutput.Academy.Rec709-D65_100nit_in_Rec709-D65_BT1886.a2.v1
        urn:ampas:aces:transformId:v2.0:InvOutput.Academy.Rec709-D65_100nit_in_Rec709-D65_Gamma2pt2.a2.v1
        urn:ampas:aces:transformId:v2.0:InvOutput.Academy.Rec709-D65_100nit_in_Rec709-D65_sRGB-Piecewise.a2.v1
        urn:ampas:aces:transformId:v2.0:InvOutput.Academy.Rec709-D65_48nit_in_P3-D65_Gamma2pt6.a2.v1
        urn:ampas:aces:transformId:v2.0:Output.Academy.Rec709-D65_100nit_in_P3-D65_ST2084.a2.v1
        urn:ampas:aces:transformId:v2.0:Output.Academy.Rec709-D65_100nit_in_P3-D65_sRGB-Piecewise.a2.v1
        urn:ampas:aces:transformId:v2.0:Output.Academy.Rec709-D65_100nit_in_Rec2100-D65_ST2084.a2.v1
        urn:ampas:aces:transformId:v2.0:Output.Academy.Rec709-D65_100nit_in_Rec709-D65_BT1886.a2.v1
        urn:ampas:aces:transformId:v2.0:Output.Academy.Rec709-D65_100nit_in_Rec709-D65_Gamma2pt2.a2.v1
        urn:ampas:aces:transformId:v2.0:Output.Academy.Rec709-D65_100nit_in_Rec709-D65_sRGB-Piecewise.a2.v1
        urn:ampas:aces:transformId:v2.0:Output.Academy.Rec709-D65_48nit_in_P3-D65_Gamma2pt6.a2.v1
    from_scene_reference: !<BuiltinTransform> {style: ACES-OUTPUT - ACES2065-1_to_CIE-XYZ-D65 - SDR-100nit-REC709_2.0}

  - !<ViewTransform>
    name: ACES 2.0 - SDR 100 nits (P3 D65)
    description: Component of ACES 2 Output Transforms for 100 nit SDR P3-D65
    interchange:
      amf_transform_ids: |
        urn:ampas:aces:transformId:v2.0:InvOutput.Academy.P3-D65_100nit_in_P3-D65_sRGB-Piecewise.a2.v1
        urn:ampas:aces:transformId:v2.0:InvOutput.Academy.P3-D65_48nit_in_P3-D65_Gamma2pt6.a2.v1
        urn:ampas:aces:transformId:v2.0:InvOutput.Academy.P3-D65_48nit_in_XYZ-E_Gamma2pt6.a2.v1
        urn:ampas:aces:transformId:v2.0:Output.Academy.P3-D65_100nit_in_P3-D65_sRGB-Piecewise.a2.v1
        urn:ampas:aces:transformId:v2.0:Output.Academy.P3-D65_48nit_in_P3-D65_Gamma2pt6.a2.v1
        urn:ampas:aces:transformId:v2.0:Output.Academy.P3-D65_48nit_in_XYZ-E_Gamma2pt6.a2.v1
    from_scene_reference: !<BuiltinTransform> {style: ACES-OUTPUT - ACES2065-1_to_CIE-XYZ-D65 - SDR-100nit-P3-D65_2.0}

  - !<ViewTransform>
    name: ACES 2.0 - HDR 1000 nits (P3 D65)
    description: Component of ACES 2 Output Transforms for 1000 nit HDR P3-D65
    interchange:
      amf_transform_ids: |
        urn:ampas:aces:transformId:v2.0:InvOutput.Academy.P3-D65_1000nit_in_P3-D65_ST2084.a2.v1
        urn:ampas:aces:transformId:v2.0:InvOutput.Academy.P3-D65_1000nit_in_P3-D65_sRGB-Piecewise.a2.v1
        urn:ampas:aces:transformId:v2.0:InvOutput.Academy.P3-D65_1000nit_in_Rec2100-D65_HLG.a2.v1
        urn:ampas:aces:transformId:v2.0:InvOutput.Academy.P3-D65_1000nit_in_Rec2100-D65_ST2084.a2.v1
        urn:ampas:aces:transformId:v2.0:Output.Academy.P3-D65_1000nit_in_P3-D65_ST2084.a2.v1
        urn:ampas:aces:transformId:v2.0:Output.Academy.P3-D65_1000nit_in_P3-D65_sRGB-Piecewise.a2.v1
        urn:ampas:aces:transformId:v2.0:Output.Academy.P3-D65_1000nit_in_Rec2100-D65_HLG.a2.v1
        urn:ampas:aces:transformId:v2.0:Output.Academy.P3-D65_1000nit_in_Rec2100-D65_ST2084.a2.v1
    from_scene_reference: !<BuiltinTransform> {style: ACES-OUTPUT - ACES2065-1_to_CIE-XYZ-D65 - HDR-1000nit-P3-D65_2.0}

  - !<ViewTransform>
    name: ACES 2.0 - HDR 500 nits (P3 D65)
    description: Component of ACES 2 Output Transforms for 500 nit HDR P3-D65
    interchange:
      amf_transform_ids: |
        urn:ampas:aces:transformId:v2.0:InvOutput.Academy.P3-D65_500nit_in_P3-D65_ST2084.a2.v1
        urn:ampas:aces:transformId:v2.0:InvOutput.Academy.P3-D65_500nit_in_Rec2100-D65_ST2084.a2.v1
        urn:ampas:aces:transformId:v2.0:Output.Academy.P3-D65_500nit_in_P3-D65_ST2084.a2.v1
        urn:ampas:aces:transformId:v2.0:Output.Academy.P3-D65_500nit_in_Rec2100-D65_ST2084.a2.v1
    from_scene_reference: !<BuiltinTransform> {style: ACES-OUTPUT - ACES2065-1_to_CIE-XYZ-D65 - HDR-500nit-P3-D65_2.0}

  - !<ViewTransform>
    name: ACES 2.0 - HDR 2000 nits (P3 D65)
    description: Component of ACES 2 Output Transforms for 2000 nit HDR P3-D65
    interchange:
      amf_transform_ids: |
        urn:ampas:aces:transformId:v2.0:InvOutput.Academy.P3-D65_2000nit_in_P3-D65_ST2084.a2.v1
        urn:ampas:aces:transformId:v2.0:InvOutput.Academy.P3-D65_2000nit_in_Rec2100-D65_ST2084.a2.v1
        urn:ampas:aces:transformId:v2.0:Output.Academy.P3-D65_2000nit_in_P3-D65_ST2084.a2.v1
        urn:ampas:aces:transformId:v2.0:Output.Academy.P3-D65_2000nit_in_Rec2100-D65_ST2084.a2.v1
    from_scene_reference: !<BuiltinTransform> {style: ACES-OUTPUT - ACES2065-1_to_CIE-XYZ-D65 - HDR-2000nit-P3-D65_2.0}

  - !<ViewTransform>
    name: ACES 2.0 - HDR 4000 nits (P3 D65)
    description: Component of ACES 2 Output Transforms for 4000 nit HDR P3-D65
    interchange:
      amf_transform_ids: |
        urn:ampas:aces:transformId:v2.0:InvOutput.Academy.P3-D65_4000nit_in_P3-D65_ST2084.a2.v1
        urn:ampas:aces:transformId:v2.0:InvOutput.Academy.P3-D65_4000nit_in_Rec2100-D65_ST2084.a2.v1
        urn:ampas:aces:transformId:v2.0:Output.Academy.P3-D65_4000nit_in_P3-D65_ST2084.a2.v1
        urn:ampas:aces:transformId:v2.0:Output.Academy.P3-D65_4000nit_in_Rec2100-D65_ST2084.a2.v1
    from_scene_reference: !<BuiltinTransform> {style: ACES-OUTPUT - ACES2065-1_to_CIE-XYZ-D65 - HDR-4000nit-P3-D65_2.0}

  - !<ViewTransform>
    name: ACES 2.0 - HDR 500 nits (Rec.2020)
    description: Component of ACES 2 Output Transforms for 500 nit HDR Rec2020
    interchange:
      amf_transform_ids: |
        urn:ampas:aces:transformId:v2.0:InvOutput.Academy.Rec2100-D65_500nit_in_Rec2100-D65_ST2084.a2.v1
        urn:ampas:aces:transformId:v2.0:Output.Academy.Rec2100-D65_500nit_in_Rec2100-D65_ST2084.a2.v1
    from_scene_reference: !<BuiltinTransform> {style: ACES-OUTPUT - ACES2065-1_to_CIE-XYZ-D65 - HDR-500nit-REC2020_2.0}

  - !<ViewTransform>
    name: ACES 2.0 - HDR 1000 nits (Rec.2020)
    description: Component of ACES 2 Output Transforms for 1000 nit HDR Rec2020
    interchange:
      amf_transform_ids: |
        urn:ampas:aces:transformId:v2.0:InvOutput.Academy.Rec2100-D65_1000nit_in_Rec2100-D65_ST2084.a2.v1
        urn:ampas:aces:transformId:v2.0:Output.Academy.Rec2100-D65_1000nit_in_Rec2100-D65_ST2084.a2.v1
    from_scene_reference: !<BuiltinTransform> {style: ACES-OUTPUT - ACES2065-1_to_CIE-XYZ-D65 - HDR-1000nit-REC2020_2.0}

  - !<ViewTransform>
    name: ACES 2.0 - HDR 2000 nits (Rec.2020)
    description: Component of ACES 2 Output Transforms for 2000 nit HDR Rec2020
    interchange:
      amf_transform_ids: |
        urn:ampas:aces:transformId:v2.0:InvOutput.Academy.Rec2100-D65_2000nit_in_Rec2100-D65_ST2084.a2.v1
        urn:ampas:aces:transformId:v2.0:Output.Academy.Rec2100-D65_2000nit_in_Rec2100-D65_ST2084.a2.v1
    from_scene_reference: !<BuiltinTransform> {style: ACES-OUTPUT - ACES2065-1_to_CIE-XYZ-D65 - HDR-2000nit-REC2020_2.0}

  - !<ViewTransform>
    name: ACES 2.0 - HDR 4000 nits (Rec.2020)
    description: Component of ACES 2 Output Transforms for 4000 nit HDR Rec2020
    interchange:
      amf_transform_ids: |
        urn:ampas:aces:transformId:v2.0:InvOutput.Academy.Rec2100-D65_4000nit_in_Rec2100-D65_ST2084.a2.v1
        urn:ampas:aces:transformId:v2.0:Output.Academy.Rec2100-D65_4000nit_in_Rec2100-D65_ST2084.a2.v1
    from_scene_reference: !<BuiltinTransform> {style: ACES-OUTPUT - ACES2065-1_to_CIE-XYZ-D65 - HDR-4000nit-REC2020_2.0}

  - !<ViewTransform>
    name: ACES 2.0 - HDR 108 nits (P3 D65)
    description: Component of ACES 2 Output Transforms for 108 nit HDR P3-D65
    interchange:
      amf_transform_ids: |
        urn:ampas:aces:transformId:v2.0:InvOutput.Academy.P3-D65_108nit_in_P3-D65_ST2084.a2.v1
        urn:ampas:aces:transformId:v2.0:Output.Academy.P3-D65_108nit_in_P3-D65_ST2084.a2.v1
    from_scene_reference: !<BuiltinTransform> {style: ACES-OUTPUT - ACES2065-1_to_CIE-XYZ-D65 - HDR-108nit-P3-D65_2.0}

  - !<ViewTransform>
    name: ACES 1.0 - SDR Video
    description: |
      Component of ACES Output Transforms for SDR D65 video

      ACEStransformID: urn:ampas:aces:transformId:v1.5:ODT.Academy.RGBmonitor_100nits_dim.a1.0.3
      ACEStransformID: urn:ampas:aces:transformId:v1.5:ODT.Academy.DisplayP3_dim.a1.0.0
      ACEStransformID: urn:ampas:aces:transformId:v1.5:ODT.Academy.Rec709_100nits_dim.a1.0.3
      ACEStransformID: urn:ampas:aces:transformId:v1.5:ODT.Academy.Rec2020_100nits_dim.a1.0.3

      AMF Components
      --------------
      ACEStransformID: urn:ampas:aces:transformId:v1.5:InvODT.Academy.RGBmonitor_100nits_dim.a1.0.3
      ACEStransformID: urn:ampas:aces:transformId:v1.5:InvODT.Academy.DisplayP3_dim.a1.0.0
      ACEStransformID: urn:ampas:aces:transformId:v1.5:InvODT.Academy.Rec709_100nits_dim.a1.0.3
      ACEStransformID: urn:ampas:aces:transformId:v1.5:InvODT.Academy.Rec2020_100nits_dim.a1.0.3
    from_scene_reference: !<BuiltinTransform> {style: ACES-OUTPUT - ACES2065-1_to_CIE-XYZ-D65 - SDR-VIDEO_1.0}

  - !<ViewTransform>
    name: ACES 1.0 - SDR Video (D60 sim on D65)
    description: |
      Component of ACES Output Transforms for SDR D65 video simulating D60 white

      ACEStransformID: urn:ampas:aces:transformId:v1.5:ODT.Academy.RGBmonitor_D60sim_100nits_dim.a1.0.3
      ACEStransformID: urn:ampas:aces:transformId:v1.5:ODT.Academy.DisplayP3_D60sim_dim.a1.0.0
      ACEStransformID: urn:ampas:aces:transformId:v1.5:ODT.Academy.Rec709_D60sim_100nits_dim.a1.0.3

      AMF Components
      --------------
      ACEStransformID: urn:ampas:aces:transformId:v1.5:InvODT.Academy.RGBmonitor_D60sim_100nits_dim.a1.0.3
      ACEStransformID: urn:ampas:aces:transformId:v1.5:InvODT.Academy.DisplayP3_D60sim_dim.a1.0.0
      ACEStransformID: urn:ampas:aces:transformId:v1.5:InvODT.Academy.Rec709_D60sim_100nits_dim.a1.0.3
    from_scene_reference: !<BuiltinTransform> {style: ACES-OUTPUT - ACES2065-1_to_CIE-XYZ-D65 - SDR-VIDEO-D60sim-D65_1.0}

  - !<ViewTransform>
    name: ACES 1.1 - SDR Video (P3 lim)
    description: |
      Component of ACES Output Transforms for SDR D65 video

      ACEStransformID: urn:ampas:aces:transformId:v1.5:ODT.Academy.Rec2020_P3D65limited_100nits_dim.a1.1.0
    from_scene_reference: !<BuiltinTransform> {style: ACES-OUTPUT - ACES2065-1_to_CIE-XYZ-D65 - SDR-VIDEO-P3lim_1.1}

  - !<ViewTransform>
    name: ACES 1.1 - SDR Video (Rec.709 lim)
    description: |
      Component of ACES Output Transforms for SDR D65 video

      ACEStransformID: urn:ampas:aces:transformId:v1.5:ODT.Academy.Rec2020_Rec709limited_100nits_dim.a1.1.0
    from_scene_reference: !<BuiltinTransform> {style: ACES-OUTPUT - ACES2065-1_to_CIE-XYZ-D65 - SDR-VIDEO-REC709lim_1.1}

  - !<ViewTransform>
    name: "ACES 1.1 - HDR Video (1000 nits & Rec.2020 lim)"
    description: |
      Component of ACES Output Transforms for 1000 nit HDR D65 video

      ACEStransformID: urn:ampas:aces:transformId:v1.5:RRTODT.Academy.Rec2020_1000nits_15nits_HLG.a1.1.0
      ACEStransformID: urn:ampas:aces:transformId:v1.5:RRTODT.Academy.Rec2020_1000nits_15nits_ST2084.a1.1.0

      AMF Components
      --------------
      ACEStransformID: urn:ampas:aces:transformId:v1.5:InvRRTODT.Academy.Rec2020_1000nits_15nits_HLG.a1.1.0
      ACEStransformID: urn:ampas:aces:transformId:v1.5:InvRRTODT.Academy.Rec2020_1000nits_15nits_ST2084.a1.1.0
    from_scene_reference: !<BuiltinTransform> {style: ACES-OUTPUT - ACES2065-1_to_CIE-XYZ-D65 - HDR-VIDEO-1000nit-15nit-REC2020lim_1.1}

  - !<ViewTransform>
    name: "ACES 1.1 - HDR Video (2000 nits & Rec.2020 lim)"
    description: |
      Component of ACES Output Transforms for 2000 nit HDR D65 video

      ACEStransformID: urn:ampas:aces:transformId:v1.5:RRTODT.Academy.Rec2020_2000nits_15nits_ST2084.a1.1.0

      AMF Components
      --------------
      ACEStransformID: urn:ampas:aces:transformId:v1.5:InvRRTODT.Academy.Rec2020_2000nits_15nits_ST2084.a1.1.0
    from_scene_reference: !<BuiltinTransform> {style: ACES-OUTPUT - ACES2065-1_to_CIE-XYZ-D65 - HDR-VIDEO-2000nit-15nit-REC2020lim_1.1}

  - !<ViewTransform>
    name: "ACES 1.1 - HDR Video (4000 nits & Rec.2020 lim)"
    description: |
      Component of ACES Output Transforms for 4000 nit HDR D65 video

